X: 2276
T: St. KEVIN
R: Irish Jig.
%R: jig
B: James Kerr "Merry Melodies" v.2 p.30 #276
Z: 2016 John Chambers <jc:trillian.mit.edu>
M: 6/8
L: 1/8
K: Bb
uF |\
Bcd dcB | G3 GAB | FGF FBd | c3 d2 uF |\
Bcd dcB | G3 GAB | FGF FBd | c3 BAB |]
cAF dBG | c3 (A2B) | cAF dcB | A3 (c2^c) |\
dAA ABc | B3 (A2B) | cGG GAB | A3 c2 |]
